frontend/public/svg/interface/star.svg

<svg width="146" height="148" viewBox="0 0 146 148" fill="none" xmlns="http://www.w3.org/2000/svg">
<g clip-path="url(#clip0)">
<path d="M72.5459 109.514C56.9547 120.9 41.7081 132.018 26.4909 143.175C25.3736 143.995 24.5213 145.168 23.4442 146.054C20.952 148.1 18.5995 147.279 18.0337 144.088C17.816 142.817 17.8768 141.513 18.2119 140.267C19.7991 134.559 21.3144 128.816 23.2447 123.221C26.9015 112.625 30.8223 102.12 34.6377 91.5799C35.0351 90.4816 35.4695 89.3976 35.8106 88.5044C25.113 78.7163 14.9855 68.7256 5.10153 58.4879C3.77221 57.0857 2.64716 55.5021 1.75952 53.7843C0.629292 51.6266 1.41504 50.179 3.7933 49.8635C6.14224 49.5403 8.51047 49.379 10.8814 49.3807C19.9342 49.4339 28.9858 49.6351 38.0386 49.6858C41.5859 49.7059 45.1345 49.4748 48.8708 49.3522C50.5946 45.0394 52.2849 40.8597 53.9388 36.6657C58.2905 25.6306 62.6345 14.5918 66.9705 3.54938C67.1207 3.14478 67.2961 2.74997 67.4955 2.3673C68.7506 0.0700539 71.1037 -0.14546 72.6741 1.98886C73.3337 2.9738 73.8703 4.03615 74.2717 5.15206C77.6817 13.5478 80.9294 22.0124 84.4993 30.3381C86.5772 35.1825 89.16 39.8106 91.5726 44.655C92.6044 44.655 93.4498 44.6719 94.2985 44.655C104.855 44.4129 115.411 44.1078 125.969 43.9449C131.022 43.867 136.08 44.0904 141.137 44.1053C142.788 44.1105 144.16 44.5246 144.891 46.0831C145.248 46.8258 145.348 47.667 145.174 48.4729C145 49.2789 144.563 50.0034 143.931 50.5316C140.607 53.7648 137.29 57.0118 133.823 60.0867C124.62 68.2485 115.338 76.3197 106.095 84.4363C105.22 85.2049 104.401 86.0377 103.586 86.8128C103.677 87.3133 103.807 87.8059 103.974 88.2863C111.01 103.442 115.372 119.431 118.698 135.742C119.267 138.044 119.708 140.375 120.02 142.724C120.36 146.481 119.099 147.008 115.496 147.588C110.454 148.405 107.389 145.742 104.186 142.804C95.8352 135.144 87.4802 127.484 80.1836 118.763C77.6953 115.789 75.2465 112.786 72.5459 109.514ZM29.305 132.464L29.7658 132.891C30.3723 132.462 30.9958 132.056 31.5829 131.6C44.0115 121.934 56.4417 112.268 68.8736 102.602C71.9614 100.208 73.6781 100.235 76.6046 102.788C78.5666 104.479 80.4167 106.297 82.1418 108.23C90.1602 117.322 99.1916 125.363 108.086 133.546C108.447 133.878 108.869 134.142 109.579 134.676C109.472 133.87 109.459 133.456 109.358 133.064C105.711 118.974 102.014 104.896 96.77 91.293C95.3756 87.6755 95.7459 84.8557 98.8601 82.0755C109.162 72.8787 119.251 63.4388 129.414 54.0908C130.249 53.3229 131.079 52.549 132.395 51.3293C130.568 51.3293 129.497 51.317 128.427 51.3293C116.786 51.4884 105.14 51.4851 93.5075 51.8902C88.4965 52.0648 85.3512 49.9427 83.1846 45.7455C83.1348 45.6494 83.0895 45.5508 83.0474 45.4522C80.976 40.5941 78.7751 35.7873 76.8758 30.8631C74.897 25.735 73.2204 20.4857 71.3846 15.2986C71.0357 14.3126 70.5619 13.3712 69.9093 11.862C68.5435 15.2667 67.2715 18.0794 66.2746 20.9874C63.1267 30.1738 60.0062 39.3711 57.024 48.6127C55.1008 54.5723 50.7404 57.1 45.0362 56.706C36.5459 56.1218 28.0375 55.7823 19.5349 55.3941C17.2046 55.2877 14.869 55.378 12.1257 55.378C15.0386 58.0147 17.7573 60.4314 20.4223 62.902C27.5428 69.4955 34.6751 76.0789 41.7193 82.7532C42.8488 83.9073 43.7754 85.2445 44.46 86.7083C45.42 88.6109 45.0962 90.1421 43.2947 91.1742C41.9768 91.9298 41.5794 92.9918 41.1768 94.2102C39.0108 100.766 36.7609 107.291 34.7114 113.879C32.7993 120.043 31.0987 126.268 29.3043 132.464H29.305Z" fill="black"/>
</g>
<defs>
<clipPath id="clip0">
<rect width="145" height="148" fill="white" transform="translate(0.777344)"/>
</clipPath>
</defs>
</svg>

<svg xmlns="http://www.w3.org/2000/svg" width="146" height="148" fill="none" viewBox="0 0 146 148"><g clip-path="url(#a)"><path fill="#000" d="M72.546 109.514C56.955 120.9 41.708 132.018 26.49 143.175c-1.117.82-1.97 1.993-3.047 2.879-2.492 2.046-4.844 1.225-5.41-1.966a8.9 8.9 0 0 1 .178-3.821c1.587-5.708 3.102-11.451 5.033-17.046 3.656-10.596 7.577-21.101 11.393-31.641.397-1.098.831-2.182 1.173-3.076C25.113 78.716 14.986 68.726 5.1 58.488a20.6 20.6 0 0 1-3.341-4.704c-1.13-2.157-.345-3.605 2.033-3.92a52 52 0 0 1 7.088-.483c9.053.053 18.105.254 27.158.305 3.547.02 7.096-.211 10.832-.334 1.724-4.313 3.414-8.492 5.068-12.686Q60.467 20.113 66.97 3.549q.225-.607.525-1.182C68.75.07 71.104-.145 72.674 1.99c.66.985 1.196 2.047 1.598 3.163 3.41 8.396 6.657 16.86 10.227 25.186 2.078 4.844 4.661 9.473 7.074 14.317 1.031 0 1.877.017 2.726 0 10.556-.242 21.112-.547 31.67-.71 5.053-.078 10.111.145 15.168.16 1.651.006 3.023.42 3.754 1.978a3.71 3.71 0 0 1-.96 4.449c-3.324 3.233-6.641 6.48-10.108 9.555-9.203 8.162-18.485 16.233-27.728 24.35-.875.768-1.694 1.6-2.509 2.376q.137.752.388 1.473c7.036 15.156 11.398 31.145 14.724 47.456a65 65 0 0 1 1.322 6.982c.34 3.757-.921 4.284-4.524 4.864-5.042.817-8.107-1.846-11.31-4.784-8.35-7.66-16.706-15.32-24.002-24.041-2.489-2.974-4.937-5.977-7.638-9.249m-43.241 22.95.46.427c.607-.429 1.23-.835 1.818-1.291l37.29-28.998c3.088-2.394 4.805-2.367 7.732.186a59 59 0 0 1 5.537 5.442c8.018 9.092 17.05 17.133 25.944 25.316.361.332.783.596 1.493 1.13-.107-.806-.12-1.22-.221-1.612-3.647-14.09-7.344-28.168-12.588-41.771-1.394-3.618-1.024-6.437 2.09-9.218 10.302-9.196 20.391-18.636 30.554-27.984.835-.768 1.665-1.542 2.981-2.762-1.827 0-2.898-.012-3.968 0-11.641.16-23.287.156-34.92.561-5.01.175-8.156-1.947-10.322-6.145a4 4 0 0 1-.138-.293c-2.071-4.858-4.272-9.665-6.171-14.589-1.979-5.128-3.656-10.377-5.491-15.564-.35-.986-.823-1.928-1.476-3.437-1.366 3.405-2.638 6.217-3.634 9.125-3.148 9.187-6.269 18.384-9.251 27.626-1.923 5.96-6.284 8.487-11.988 8.093-8.49-.584-16.998-.924-25.501-1.312-2.33-.106-4.666-.016-7.41-.016 2.914 2.637 5.632 5.053 8.297 7.524 7.12 6.594 14.253 13.177 21.297 19.851a14.3 14.3 0 0 1 2.741 3.955c.96 1.903.636 3.434-1.165 4.466-1.318.756-1.716 1.818-2.118 3.036-2.166 6.556-4.416 13.081-6.466 19.669-1.912 6.164-3.612 12.389-5.407 18.585z"/></g><defs><clipPath id="a"><path fill="#fff" d="M.777 0h145v148h-145z"/></clipPath></defs></svg>
